!! 00010] TT[TB
!! Eigene Aufnahme
!!!OTL: Meili de sailimu The beautiful Sajram                       (Name)
!!!ARE: Neimeng
!! Ethnic Group: Menggu
!! MM, S. 1593f
!!!SCT: C0581
!!!YEM: Copyright 1995, estate of Helmut Schaffrath.
**kern
*ICvox
*Ivox
*M6/8
*k[]
*C:
{8cc
8cc
8dd
8.ee
16ee
8dd
=1
8.cc
16dd
8ee
8.g
16g
8g}
=2
{8.ee
16ee
16ee
16dd
8.cc
16a
16g
16a
=3
[4.g
4.g]}
=4
{4cc
8a
4g
8d
=5
4e
8d
4c
8c}
=6
{4g
16a
16cc
8.g
16e
16d
16e
=7
[4.c
4.c]}
=8
{4.cc
4.ee
=9
8.cc
16dd
8ee
4.g}
=10
{4ee
8dd
8.cc
16a
16g
16a
=11
[4.g
4.g]}
=12
{4cc
8a
4g
8d
=13
4e
8d
4c
8c}
=14
{4g
16a
16cc
8.g
16e
16d
16e
=15
[4.c
4.c]}
==
!!!AGN: NN
!! Saenger: Chao Lun Batou, der das Buch nur zum Nachschlagen
!!    benutzte und ansonsten auswendig sang. Da er aus dem Osten der
!!    Neimeng kommt, kennt er nicht so viele Lieder des Westens.
!!    Alle Lieder wurden mit erkaelteter, halber Stimme in meinem
!!    Zimmer gesungen. FOTO VORHANDEN (DIAS)  31.3.87
!!!ONB: ESAC (Essen Associative Code) Database: CHINA
!!!AMT: compound duple
!!!AIN: vox
!!!EED: Helmut Schaffrath
!!!EEV: 1.0
*-
